X: 32547
T: Planxty Fiddlesticks
R: polka
M: 2/4
K: Gmajor
G/F/G/A/ Bc|dg d2|cA BA/G/|FDCB,|
G/F/G/A/ Bc|dg d2|g/d/c F/G/A/F/|G4:|
B2 B/A/B/c/|dB B2|c2 c/B/c/d/|g/d/B/g/ f/d/c/A/|
B2 B/A/B/c/|dB Be/f/|gb d/c/B/A/|G4:|

